X:21
T:To the Ladies
R:jig
D:Kevin Burke, 'Up Close'
M:6/8
L:1/8
K:A
|:  ecA BAF | AFE  EFA | Bdc      BAB |  cBB B2f   |
  ecA BAF | AFE EFA |   Bdc  BAB |1   cAA A2 f :|2  cAA A2B |: 
 cee  dff |  cee ecA    |   cee   dff |   ecA  B2A  |
 cee  dff |  cee  ecA |  Bdc  BAB |1   cAA      A2B :|2  cAA A2 |]
